!!!COM: Honegger, Arthur
!!!OTL: Pacific 231, Movement symphonique no. 1 (Symphonic Movement No. 1)
!!!OMV:
!!!example: 588
!!!work: Hon-18
**kern	**kern	**kern	**kern	**kern	**kern	**dynam	**kern	**kern	**kern	**kern	**kern	**kern	**kern	**kern	**kern	**kern
*grp:A	*grp:A	*grp:A	*grp:A	*grp:A	*grp:A	*grp:A	*grp:A	*grp:A	*grp:B	*grp:B	*grp:B	*grp:A	*grp:A	*grp:A	*grp:A	*grp:A
*part16	*part15	*part14	*part13	*part12	*part11	*part11	*part10	*part9	*part8	*part7	*part6	*part5	*part4	*part3	*part2	*part1
*staff16	*staff15	*staff14	*staff13	*staff12	*staff11	*	*staff10	*staff9	*staff8	*staff7	*staff6	*staff5	*staff4	*staff3	*staff2	*staff1
*I"Contrabass	*I"Violoncello	*I"Viola	*I"Violin II	*I"Violin I	*I"Bass Drum	*	*I"Horn in F	*I"Horn in F	*I"Contrabassoon	*I"Bassoon	*I"Bass Clarinet in Bb	*I"Clarinet in Bb	*I"Clarinet in Bb	*I"Cor Anglais	*I"Oboe	*I"Flute
*I'Cb.	*I'Vc.	*I'Vla.	*I'Vln. II	*I'Vln. I	*I'B. D.	*	*I'Hn.	*I'Hn.	*I'Cbsn.	*I'Bsn.	*I'B. Cl.	*I'Cl.	*I'Cl.	*I'C. A.	*I'Ob.	*I'Fl.
*clefF4	*clefF4	*clefC3	*clefG2	*clefG2	*clefpercussion0	*	*clefG2	*clefG2	*clefF4	*clefF4	*clefF4	*clefG2	*clefG2	*clefG2	*clefG2	*clefG2
*k[]	*k[]	*k[]	*k[]	*k[]	*	*	*	*	*k[]	*k[]	*k[]	*k[]	*k[]	*k[]	*k[]	*k[]
*	*	*	*	*	*	*	*	*	*	*	*	*	*	*	*	*
*M4/4	*M4/4	*M4/4	*M4/4	*M4/4	*M4/4	*	*M4/4	*M4/4	*M4/4	*M4/4	*M4/4	*M4/4	*M4/4	*M4/4	*M4/4	*M4/4
*MM160	*MM160	*MM160	*MM160	*MM160	*MM160	*	*MM160	*MM160	*MM160	*MM160	*MM160	*MM160	*MM160	*MM160	*MM160	*MM160
=51	=51	=51	=51	=51	=51	=51	=51	=51	=51	=51	=51	=51	=51	=51	=51	=51
1r	4An	4a-X	4A-X	4c#X	1r	.	1r	1r	4r	4r	4r	4A-X	4An	4A-X	4c#X 4a-X	4c#X 4a-X
.	4r	4r	4r	4r	.	.	.	.	8GGG-X	8G-XL	8GG-XL	4r	4r	4r	4r	4r
.	.	.	.	.	.	.	.	.	8r	8GG-XJ	8GG-J	.	.	.	.	.
.	4r	4r	4r	4r	.	.	.	.	8DDD-X	8D-XL	8DD-XL	4r	4r	4r	4r	4r
.	.	.	.	.	.	.	.	.	8r	8DD-XJ	8DD-J	.	.	.	.	.
.	4F	4e-X	4An	4Bn	.	.	.	.	4r	4r	4r	4Gn	4Gn	4F	4Bn 4e-X	4e-X
=52	=52	=52	=52	=52	=52	=52	=52	=52	=52	=52	=52	=52	=52	=52	=52	=52
1r	4A-X	4en	4B-X	4d	1r	.	1r	1r	4r	4r	4r	4B-X	4A-X	4B-X	4d 4en	4d 4en
.	4r	4r	4r	4r	.	.	.	.	8CCC#X	8CC#XL	8DD-XL	4r	4r	4r	4r	4r
.	.	.	.	.	.	.	.	.	8r	8C#XJ	8DD-J	.	.	.	.	.
.	4r	4r	4r	4r	.	.	.	.	8EEEn	8EEnL	8FF-XL	4r	4r	4r	4r	4r
.	.	.	.	.	.	.	.	.	8r	8EnJ	8FF-J	.	.	.	.	.
.	4An	4g#X	4d-X	4d#X	.	.	.	.	4r	4r	4r	4B-	4d-X	4An	4d#X 4g#X	4d#X 4g#X
=53	=53	=53	=53	=53	=53	=53	=53	=53	=53	=53	=53	=53	=53	=53	=53	=53
1r	4B	4b	4c	4e	1r	.	1r	1r	4r	4r	4r	4Bn	4c	4Bn	4en 4bn	4e 4b
.	4r	4r	4r	4r	.	.	.	.	8AAA	8cnL	8AAnL	4r	4r	4r	4r	4r
.	.	.	.	.	.	.	.	.	8r	8CnJ	8AAJ	.	.	.	.	.
.	4r	4r	4r	4r	.	.	.	.	8EEE	8EL	8EE-XL	4r	4r	4r	4r	4r
.	.	.	.	.	.	.	.	.	8r	8EEJ	8EE-J	.	.	.	.	.
.	4G#X	4f#X	4c	4dn	.	.	.	.	4r	4r	4r	4G#X	4c	4G#X	4d#X 4f#X	4d#X 4f#X
=54	=54	=54	=54	=54	=54	=54	=54	=54	=54	=54	=54	=54	=54	=54	=54	=54
!LO:TX:a:t=pizz.	!	!	!	!	!	!	!	!	!	!	!	!	!	!	!	!
4CC	(4.D#X	4g	4c	4Bn	1r	.	4c~	1r	4CC'	1r	1r	(2.An	(2.An	(2.B	8c 8g	8c 8g
.	.	.	.	.	.	.	.	.	.	.	.	.	.	.	8r	8r
4GG	.	4r	4r	4r	.	.	4e-X~	.	4GG'	.	.	.	.	.	4r	4r
.	8C##X	.	.	.	.	.	.	.	.	.	.	.	.	.	.	.
4FFF#X	4D#)	4r	4r	2r	.	.	6g	.	4FFF#X'	.	.	.	.	.	2r	2r
.	.	.	.	.	.	.	6g	.	.	.	.	.	.	.	.	.
!	!	!LO:TX:a:t=pizz.	!LO:TX:a:t=pizz.	!	!	!	!	!	!	!	!	!	!	!	!	!
4r	4r	8A-XL	8c#XL	.	.	.	.	.	4r	.	.	8A-XL	8A-XL	8c#XL	.	.
.	.	.	.	.	.	.	6cc	.	.	.	.	.	.	.	.	.
.	.	8GJ	8dJ	.	.	.	.	.	.	.	.	8GnJ)	8GJ)	8dJ)	.	.
=55	=55	=55	=55	=55	=55	=55	=55	=55	=55	=55	=55	=55	=55	=55	=55	=55
4CC	(4.D#X	4An	4Bn	1r	1r	.	6b-X	1r	4CC'	1r	1r	(2.An	(2.An	(2.B	1r	1r
.	.	.	.	.	.	.	6a	.	.	.	.	.	.	.	.	.
4GG	.	4r	4r	.	.	.	.	.	4GG'	.	.	.	.	.	.	.
.	.	.	.	.	.	.	6g	.	.	.	.	.	.	.	.	.
.	8C##X	.	.	.	.	.	.	.	.	.	.	.	.	.	.	.
4FFF#X	4D#)	4r	4r	.	.	.	4f~	.	4FFF#X'	.	.	.	.	.	.	.
4r	4r	8F#XL	8d-XL	.	.	.	4g~	.	4r	.	.	8F#XL	8F#XL	8d-XL	.	.
.	.	8GJ	8cnJ	.	.	.	.	.	.	.	.	8GJ)	8GJ)	8cnJ)	.	.
=56	=56	=56	=56	=56	=56	=56	=56	=56	=56	=56	=56	=56	=56	=56	=56	=56
4DD	(4.E#X	4A-X	4B-X	1r	1r	.	4dn~	5dn	4DD	1r	1r	(2.A-X	(2.A-X	(2.B	1r	1r
.	.	.	.	.	.	.	.	5en	.	.	.	.	.	.	.	.
4BB-X	.	4r	4r	.	.	.	4r	.	4BB-X	.	.	.	.	.	.	.
.	8F#X	.	.	.	.	.	.	.	.	.	.	.	.	.	.	.
.	.	.	.	.	.	.	.	5g	.	.	.	.	.	.	.	.
4AAA-X	4E#)	4r	4r	.	.	.	2r	.	4AAA-X	.	.	.	.	.	.	.
.	.	.	.	.	.	.	.	5f#X	.	.	.	.	.	.	.	.
4r	4r	8GL	8BnL	.	.	.	.	.	4r	.	.	8GL	8GL	8BnL	.	.
.	.	.	.	.	.	.	.	5b	.	.	.	.	.	.	.	.
.	.	8A-J	8cJ	.	.	.	.	.	.	.	.	8F#XJ)	8F#XJ)	8cJ)	.	.
=57	=57	=57	=57	=57	=57	=57	=57	=57	=57	=57	=57	=57	=57	=57	=57	=57
4DD	(4.E#X	4A-X	4B-X	1r	1r	.	1r	6a	1r	1r	1r	(2.A-X	(2.A-X	(2.B-X	1r	1r
.	.	.	.	.	.	.	.	6g	.	.	.	.	.	.	.	.
4AAA-X	.	4r	4r	.	.	.	.	.	.	.	.	.	.	.	.	.
.	.	.	.	.	.	.	.	6a	.	.	.	.	.	.	.	.
.	8F#X	.	.	.	.	.	.	.	.	.	.	.	.	.	.	.
4BB-X	4E#)	4r	4r	.	.	.	.	6d	.	.	.	.	.	.	.	.
.	.	.	.	.	.	.	.	6en	.	.	.	.	.	.	.	.
4r	4r	8GL	8d-XL	.	.	.	.	.	.	.	.	8GL	8GL	8c-XL	.	.
.	.	.	.	.	.	.	.	6f#X	.	.	.	.	.	.	.	.
.	.	8F#XJ	8cJ	.	.	.	.	.	.	.	.	8A-J)	8A-J)	8B-J)	.	.
=58	=58	=58	=58	=58	=58	=58	=58	=58	=58	=58	=58	=58	=58	=58	=58	=58
4CC	(4.E-X	4An	4Bn	1r	1r	.	4c	4c	1r	1r	1r	(2.An	(2.An	(2.Bn	1r	1r
4GG	.	4r	4r	.	.	.	4e-X	4r	.	.	.	.	.	.	.	.
.	8D	.	.	.	.	.	.	.	.	.	.	.	.	.	.	.
4FFF#X	4E-)	4r	4r	.	.	.	6g	2r	.	.	.	.	.	.	.	.
.	.	.	.	.	.	.	6g	.	.	.	.	.	.	.	.	.
4r	4r	8A-XL	8c#XL	.	.	.	.	.	.	.	.	8A-XL	8A-XL	8c#XL	.	.
.	.	.	.	.	.	.	6cc	.	.	.	.	.	.	.	.	.
.	.	8A-J	8dJ	.	.	.	.	.	.	.	.	8GJ)	8GJ)	8dJ)	.	.
=59	=59	=59	=59	=59	=59	=59	=59	=59	=59	=59	=59	=59	=59	=59	=59	=59
4CC	(4.E-X	4An	4Bn	1r	1r	.	6b-X	1r	1r	1r	1r	(2.An	(2.An	(2.B	1r	1r
.	.	.	.	.	.	.	6a	.	.	.	.	.	.	.	.	.
4FFF#X	.	4r	4r	.	.	.	.	.	.	.	.	.	.	.	.	.
.	.	.	.	.	.	.	6g	.	.	.	.	.	.	.	.	.
.	8D	.	.	.	.	.	.	.	.	.	.	.	.	.	.	.
4GG	4E-)	4r	4r	.	.	.	4fn	.	.	.	.	.	.	.	.	.
4r	4r	8F#XL	8cnL	.	.	.	4g	.	.	.	.	8F#XL	8F#XL	8cnL	.	.
.	.	8GJ	8B-XJ	.	.	.	.	.	.	.	.	8GJ)	8GJ)	8B-XJ)	.	.
=60	=60	=60	=60	=60	=60	=60	=60	=60	=60	=60	=60	=60	=60	=60	=60	=60
4BBBn	(4.D	4G#X	4A	1r	1r	.	4a	5an	1r	4BBn	1r	(2.A-X	(2.A-X	(2.A	1r	1r
.	.	.	.	.	.	.	.	5b	.	.	.	.	.	.	.	.
4AA-X	.	4r	4r	.	.	.	4r	.	.	4A-X	.	.	.	.	.	.
.	8E-X	.	.	.	.	.	.	.	.	.	.	.	.	.	.	.
.	.	.	.	.	.	.	.	5cc	.	.	.	.	.	.	.	.
4FFF	4D)	4r	4r	.	.	.	2r	.	.	4FFn	.	.	.	.	.	.
.	.	.	.	.	.	.	.	5dd	.	.	.	.	.	.	.	.
4r	4r	8GnL	8A#XL	.	.	.	.	.	.	4r	.	8GL	8GL	8B-XL	.	.
.	.	.	.	.	.	.	.	5ee-X	.	.	.	.	.	.	.	.
.	.	8F#XJ	8BJ	.	.	.	.	.	.	.	.	8F#XJ)	8F#XJ)	8c-XJ)	.	.
=61	=61	=61	=61	=61	=61	=61	=61	=61	=61	=61	=61	=61	=61	=61	=61	=61
4BBB	(4.D	4G#X	4A#X	1r	1r	.	1r	6dd	1r	4BB	1r	(2.A-X	(2.A-X	(2.An	1r	1r
.	.	.	.	.	.	.	.	6a	.	.	.	.	.	.	.	.
4AA-X	.	4r	4r	.	.	.	.	.	.	4A-X	.	.	.	.	.	.
.	.	.	.	.	.	.	.	6b	.	.	.	.	.	.	.	.
.	8E-X	.	.	.	.	.	.	.	.	.	.	.	.	.	.	.
4BBB	4D)	4r	4r	.	.	.	.	6fn	.	4BB	.	.	.	.	.	.
.	.	.	.	.	.	.	.	6g	.	.	.	.	.	.	.	.
4FFF	4r	8G#XL	8A#L	.	.	.	.	.	.	4FF	.	8A-L	8A-L	8AL	.	.
.	.	.	.	.	.	.	.	6d	.	.	.	.	.	.	.	.
.	.	8GnJ	8A#XJ	.	.	.	.	.	.	.	.	8GJ)	8GJ)	8B-XJ)	.	.
=62	=62	=62	=62	=62	=62	=62	=62	=62	=62	=62	=62	=62	=62	=62	=62	=62
*M6/4	*M6/4	*M6/4	*M6/4	*M6/4	*M6/4	*	*M6/4	*M6/4	*M6/4	*M6/4	*M6/4	*M6/4	*M6/4	*M6/4	*M6/4	*M6/4
2.GG-X	4AA^ 4En	4F#X^	4Bn	4r	4x	p	4E#X^ 4F	4c#X	1.r	2.GG-X	1.r	4F#X	4F#X	4E#X	1.r	1.r
.	4BB~	4E#X~	4r	4A~	4r	.	4r	4r	.	.	.	4r	4r	4r	.	.
.	4D~	4F##X~	4r	4c#X~	4r	.	4r	4r	.	.	.	2r	2r	2r	.	.
2.FF	4E~	4A#X~	4r	4d~	4r	.	4r	4r	.	2.FF	.	.	.	.	.	.
.	4Fn~	4B~	4r	4c#~	4r	.	4r	4r	.	.	.	4r	4r	4r	.	.
!	!	!	!LO:TX:a:t=arco	!	!	!	!	!	!	!	!	!	!	!	!	!
.	4E^	4F#X^	4Gn	4r	4x	sf	4E#^ 4F	4Gn	.	.	.	4r	4r	4r	.	.
=63	=63	=63	=63	=63	=63	=63	=63	=63	=63	=63	=63	=63	=63	=63	=63	=63
2.EE	4D#X~	4An~	1.r	2r	4r	.	2r	2r	1.r	2.EE	1.r	1.r	1.r	1.r	1.r	1.r
.	4Dn~	4G#X~	.	.	4r	.	.	.	.	.	.	.	.	.	.	.
.	4C#X~	4Gn~	.	4r	4r	.	4r	4r	.	.	.	.	.	.	.	.
2.EE-X	4Cn~	4Fn~	.	4r	4r	.	4r	4r	.	2.EE-X	.	.	.	.	.	.
.	4D-X^	4G#X^	.	4B-X^	4x	sf	4C#X^ 4G#X	4B-X^	.	.	.	.	.	.	.	.
.	4E-X	4A	.	4d-X	4r	.	4r	4r	.	.	.	.	.	.	.	.
=64	=64	=64	=64	=64	=64	=64	=64	=64	=64	=64	=64	=64	=64	=64	=64	=64
2.DD	4G-X	4Bn	2r	4f	4r	.	2r	2r	2.DD	2.DD	1.r	1.r	1.r	1.r	1.r	1.r
.	4A-X	4d	.	4g-X	4r	.	.	.	.	.	.	.	.	.	.	.
.	4An	4e-X	4r	4f	4r	.	4r	4r	.	.	.	.	.	.	.	.
2.DD-X	4G#X^	4B-X^	4Bn^	2.r	4x	sf	4A-X^ 4B-X	4c-X^	2.DD-X	2.r	.	.	.	.	.	.
.	4Gn	4d-X	4d#X	.	4r	.	4r	4r	.	.	.	.	.	.	.	.
.	4F#X	4c	4e#X	.	4r	.	4r	4r	.	.	.	.	.	.	.	.
=65	=65	=65	=65	=65	=65	=65	=65	=65	=65	=65	=65	=65	=65	=65	=65	=65
2.CC	4Fn	4c-X	4f#X	4r	4r	.	4r	4r	2.CC	1.r	1.r	1.r	1.r	1.r	1.r	1.r
.	4E	4B-X	4g#X	4r	4r	.	4r	4r	.	.	.	.	.	.	.	.
.	4F^	4cn^	4dn^	4dn^	4x	sf	4Fn^ 4cn	4dn^	.	.	.	.	.	.	.	.
2.BBB	4Gn	4d-X	4fn	4f	2.r	.	2.r	2.r	2.BBB	.	.	.	.	.	.	.
.	4B-X	4e-X	4a	4a	.	.	.	.	.	.	.	.	.	.	.	.
.	4c	4g-X	4b-X	4b-X	.	.	.	.	.	.	.	.	.	.	.	.
=66	=66	=66	=66	=66	=66	=66	=66	=66	=66	=66	=66	=66	=66	=66	=66	=66
2.BBB-X	4d-X	4gn	4a	4a	4r	.	4r	4r	2.BBB-X	1.r	1.r	1.r	1.r	1.r	1.r	1.r
.	4c^	4dn^	4dn^	4dn^	4x	sf	4c^ 4d	4dn^ 4e-X	.	.	.	.	.	.	.	.
.	4Bn	4f	4f	4f	2.r	.	4r	4r	.	.	.	.	.	.	.	.
2.AAA	4B-X	4en	4a	4a	.	.	2.r	2.r	2.AAA	.	.	.	.	.	.	.
.	4A	4e-X	4b-X	4b-X	.	.	.	.	.	.	.	.	.	.	.	.
.	4A-X	4d-X	4cc	4cc	4r	.	.	.	.	.	.	.	.	.	.	.
=	=	=	=	=	=	=	=	=	=	=	=	=	=	=	=	=
*-	*-	*-	*-	*-	*-	*-	*-	*-	*-	*-	*-	*-	*-	*-	*-	*-
!!!system-decoration: [(s1,s2,s3,s4,s5,s6,s7,s8)][(s9,s10)]s11[(s12,s13,s14,s15,s16)]
!!!CDT: 1892/03/10-1955/11/27
!!!CBL: Le Havre, France
!!!CDL: Paris, France
!!!CNT: Swiss, French
!!!AGN: Orchestral; Symphonic
!!!MCN: Koussevitzky, Serge
!!!MDT: 1924/05/08
!!!MGN: Orchestre de l'Opéra
!!!MLC: Paris, France
!!!MPD: 1924
!!!MPN:
!!!ODT: 1923
!!!PDT: 1924
!!!excerpt-start-measure: 51
!!!excerpt-end-measure: 66
!!!excerpt-start-time: 1:21
!!!excerpt-end-time: 1:44
!!!EEV: 2020/01/26
!!!ONB: Converted from MusicXML on 2020/01/26
